X:1
T: Cluny Castle
C:
R:Reel
Q: 232
K:A
M:4/4
L:1/8
|:E|A2 c1/2B1/2A GA FA|EA dc cB Bc|A2 c1/2B1/2A GA FA|Ed cB cA AE|
A2 c1/2B1/2A GA FA|EA dc cB Bc|A2 c1/2B1/2A GA FA|Ed cB cA Ae|
ae ce Ae ce|dB cA GB Bg|ae ce Ae ce|df ed cA Ag|
ae ce Ae ce|df ce fB Bd|cA GA FA df|ec dB cAA:|
